packages/assets/application-icons/21.Wrench.svg

<?xml version="1.0" encoding="UTF-8"?>
<svg width="24px" height="24px" viewBox="0 0 24 24" version="1.1" xmlns="http://www.w3.org/2000/svg" xmlns:xlink="http://www.w3.org/1999/xlink">
    <title>21.Wrench</title>
    <g id="Page-1" stroke="none" stroke-width="1" fill="none" fill-rule="evenodd">
        <g id="Artboard" transform="translate(-134.000000, -203.000000)" fill="#000000" fill-rule="nonzero">
            <g id="21.Wrench" transform="translate(134.000000, 203.000000)">
                <path d="M20.762308,6.2236761 L20.5643223,5.62071956 L17.3839515,8.79929045 L15.823464,8.17473547 L15.198909,6.61424795 L18.3774799,3.43567706 L17.7745234,3.23769133 C16.344199,2.76418438 14.7734819,3.00659834 13.5524649,3.88929555 C12.331448,4.77199276 11.6087878,6.18750646 11.6099677,7.69417011 C11.6093978,8.27042014 11.7162133,8.8417309 11.924945,9.37884868 L3.55914801,17.7446457 C2.81361733,18.4901764 2.81361733,19.6989204 3.55914801,20.4444511 C4.30467868,21.1899818 5.51342273,21.1899818 6.25895341,20.4444511 L14.6193508,12.0732545 C15.1565033,12.2818645 15.727791,12.3886758 16.3040294,12.3882318 C17.8110103,12.3899904 19.2270599,11.6675703 20.1101775,10.4464651 C20.993295,9.22535987 21.2359154,7.65430204 20.762308,6.2236761 Z" id="Wrench"></path>
            </g>
        </g>
    </g>
</svg>

<svg width="24" height="24" viewBox="0 0 24 24" xmlns="http://www.w3.org/2000/svg"><path d="m20.762 6.224-.198-.603-3.18 3.178-1.56-.624-.625-1.56 3.178-3.18-.602-.197a4.69 4.69 0 0 0-5.85 6.14l-8.366 8.367a1.91 1.91 0 1 0 2.7 2.7l8.36-8.372a4.69 4.69 0 0 0 6.143-5.85Z" fill="#000" fill-rule="nonzero"/></svg>
